X:1
T:Shetland Isles Hornpipe
N:Transcribed from a 1954 field recording of fiddler Peter Scollay (1922-2000),
N:Burravoe, Yell, Shetland.
M:C|
L:1/8
R:Reel
D: https://www.tobarandualchais.co.uk/track/87310?l=en
Z:Andrew Kuntz
K:A
(3efg|aecA EAce| fece a2   ga  |ecAF EFAB |c2B2B2e2|
aecA EAce| fece a2ga| ecAF EFAB |c2A2A2:|
|:E2|aecA dAcA|BAFA E2AB|cBAF EFAB|c2B2B2e2|
aecA dAcA|BAFA E2E2|efga  ecAB |c2A2A2:||

